components/dashboard/src/images/gitpod.svg

<svg width="140" height="40" viewBox="0 0 140 40" fill="none" xmlns="http://www.w3.org/2000/svg">
<path d="M56.0449 30.4444C50.1877 30.4444 46 26.25 46 20.7222C46 15.1944 50.216 11 55.96 11C58.7895 11 60.9966 12.0833 62.8358 13.6667L61.6757 16.0278C60.2609 14.6389 58.45 13.5 55.8468 13.5C51.6025 13.5 48.5466 16.4167 48.5466 20.7222C48.5466 25.0278 51.5742 27.9444 55.8751 27.9444C59.5818 27.9444 62.2133 25.75 62.6377 22.4167H55.0828V19.9167H65.5239V20.0278C65.5239 26.1389 62.0152 30.4444 56.0449 30.4444Z" fill="#12100C"/>
<path d="M68.1803 16.5556H70.6137V30.4444H68.1803V16.5556Z" fill="#12100C"/>
<path d="M82.1393 30.25V28.1389C81.3753 28.2778 80.7528 28.3611 79.8473 28.3611C78.6589 28.3611 78.2345 27.75 78.2345 26.6944V18.6389H82.111V16.5556H78.2345V12.8333H75.8011V16.5556H72.9998V18.6389H75.8011V26.5556C75.8011 29.5 77.131 30.5833 79.7059 30.5833C80.6113 30.5833 81.4036 30.4444 82.1393 30.25Z" fill="#12100C"/>
<path fill-rule="evenodd" clip-rule="evenodd" d="M87.0989 36H84.6655V16.5556H87.0989V18.5556C88.259 17.0278 89.9851 16.2222 92.0789 16.2222C96.0969 16.2222 98.8981 19.2222 98.8981 23.5C98.8981 27.7778 96.0969 30.7778 92.0789 30.7778C90.07 30.7778 88.4288 30 87.0989 28.4167V36ZM86.9292 23.5C86.9292 26.5833 88.7967 28.5556 91.6545 28.5556C94.5123 28.5556 96.3798 26.5556 96.3798 23.5C96.3798 20.4444 94.5123 18.4444 91.6545 18.4444C88.7967 18.4444 86.9292 20.4167 86.9292 23.5Z" fill="#12100C"/>
<path fill-rule="evenodd" clip-rule="evenodd" d="M100.413 23.5C100.413 27.6667 103.582 30.7778 107.826 30.7778C112.071 30.7778 115.24 27.6667 115.24 23.5C115.24 19.3333 112.071 16.2222 107.826 16.2222C103.582 16.2222 100.413 19.3333 100.413 23.5ZM112.722 23.5C112.722 26.3889 110.769 28.4722 107.826 28.4722C104.884 28.4722 102.931 26.3889 102.931 23.5C102.931 20.6111 104.884 18.5278 107.826 18.5278C110.769 18.5278 112.722 20.6111 112.722 23.5Z" fill="#12100C"/>
<path fill-rule="evenodd" clip-rule="evenodd" d="M128.567 11H131V30.4444H128.567V28.4444C127.406 29.9722 125.68 30.7778 123.587 30.7778C119.569 30.7778 116.767 27.7778 116.767 23.5C116.767 19.2222 119.569 16.2222 123.587 16.2222C125.596 16.2222 127.237 17 128.567 18.5833V11ZM128.736 23.5C128.736 20.4167 126.869 18.4444 124.011 18.4444C121.153 18.4444 119.286 20.4444 119.286 23.5C119.286 26.5556 121.153 28.5556 124.011 28.5556C126.869 28.5556 128.736 26.5833 128.736 23.5Z" fill="#12100C"/>
<path d="M69.4026 14.7302C70.3643 14.7302 71.1439 13.9679 71.1439 13.0275C71.1439 12.087 70.3643 11.3247 69.4026 11.3247C68.4408 11.3247 67.6612 12.087 67.6612 13.0275C67.6612 13.9679 68.4408 14.7302 69.4026 14.7302Z" fill="#12100C"/>
<path fill-rule="evenodd" clip-rule="evenodd" d="M21.388 1.99199C22.4572 3.8871 21.8071 6.30126 19.936 7.38418L8.30155 14.1176C7.99402 14.2956 7.8042 14.6271 7.8042 14.9861V25.5563C7.8042 25.9153 7.99402 26.2467 8.30155 26.4247L17.511 31.7548C17.8141 31.9301 18.1859 31.9301 18.489 31.7548L27.6985 26.4247C28.006 26.2467 28.1958 25.9153 28.1958 25.5563V18.9825L19.9175 23.7132C18.0406 24.7858 15.6605 24.1142 14.6015 22.2133C13.5425 20.3123 14.2056 17.9017 16.0825 16.8292L27.9277 10.0602C31.5358 7.99827 36 10.6386 36 14.8346V26.3588C36 29.0581 34.572 31.5504 32.258 32.8896L21.6846 39.009C19.4014 40.3303 16.5986 40.3303 14.3154 39.009L3.74196 32.8896C1.42803 31.5504 0 29.0581 0 26.3588V14.1835C0 11.4843 1.42803 8.99201 3.74196 7.65282L16.064 0.521394C17.9351 -0.561524 20.3188 0.0968851 21.388 1.99199Z" fill="url(#paint0_linear)"/>
<defs>
<linearGradient id="paint0_linear" x1="27.0957" y1="6.04878" x2="8.28086" y2="35.2541" gradientUnits="userSpaceOnUse">
<stop stop-color="#FFB45B"/>
<stop offset="1" stop-color="#FF8A00"/>
</linearGradient>
</defs>
</svg>

<svg xmlns="http://www.w3.org/2000/svg" fill="none" viewBox="0 0 140 40"><path fill="#12100C" d="M56.045 30.444C50.188 30.444 46 26.25 46 20.722S50.216 11 55.96 11c2.83 0 5.037 1.083 6.876 2.667l-1.16 2.36C60.26 14.64 58.45 13.5 55.846 13.5c-4.243 0-7.3 2.917-7.3 7.222 0 4.306 3.028 7.222 7.33 7.222 3.706 0 6.337-2.194 6.762-5.527h-7.555v-2.5h10.44v.11c0 6.112-3.508 10.417-9.478 10.417zM68.18 16.556h2.434v13.888H68.18V16.556zM82.14 30.25v-2.111c-.765.139-1.387.222-2.293.222-1.188 0-1.612-.611-1.612-1.667V18.64h3.876v-2.083h-3.877v-3.723h-2.433v3.723H73v2.083H75.8v7.917c0 2.944 1.33 4.027 3.905 4.027.905 0 1.698-.139 2.433-.333z"/><path fill="#12100C" fill-rule="evenodd" d="M87.099 36h-2.434V16.556H87.1v2c1.16-1.528 2.886-2.334 4.98-2.334 4.018 0 6.82 3 6.82 7.278s-2.802 7.278-6.82 7.278c-2.009 0-3.65-.778-4.98-2.361V36zm-.17-12.5c0 3.083 1.868 5.056 4.725 5.056 2.858 0 4.726-2 4.726-5.056s-1.868-5.056-4.725-5.056c-2.858 0-4.726 1.973-4.726 5.056zM100.413 23.5c0 4.167 3.169 7.278 7.413 7.278 4.245 0 7.414-3.111 7.414-7.278s-3.169-7.278-7.414-7.278c-4.244 0-7.413 3.111-7.413 7.278zm12.309 0c0 2.889-1.953 4.972-4.896 4.972-2.942 0-4.895-2.083-4.895-4.972 0-2.889 1.953-4.972 4.895-4.972 2.943 0 4.896 2.083 4.896 4.972zM128.567 11H131v19.444h-2.433v-2c-1.161 1.528-2.887 2.334-4.98 2.334-4.018 0-6.82-3-6.82-7.278s2.802-7.278 6.82-7.278c2.009 0 3.65.778 4.98 2.361V11zm.169 12.5c0-3.083-1.867-5.056-4.725-5.056-2.858 0-4.725 2-4.725 5.056s1.867 5.056 4.725 5.056c2.858 0 4.725-1.973 4.725-5.056z" clip-rule="evenodd"/><path fill="#12100C" d="M69.403 14.73c.961 0 1.74-.762 1.74-1.703 0-.94-.779-1.702-1.74-1.702-.962 0-1.742.762-1.742 1.703 0 .94.78 1.702 1.742 1.702z"/><path fill="url(#paint0_linear)" fill-rule="evenodd" d="M21.388 1.992c1.07 1.895.42 4.31-1.452 5.392L8.302 14.118c-.308.178-.498.51-.498.868v10.57c0 .36.19.69.498.869l9.209 5.33a.975.975 0 00.978 0l9.21-5.33c.307-.178.497-.51.497-.869v-6.573l-8.279 4.73a3.876 3.876 0 01-5.316-1.5c-1.059-1.9-.395-4.311 1.481-5.384l11.846-6.769C31.536 7.998 36 10.64 36 14.835v11.524a7.54 7.54 0 01-3.742 6.53l-10.573 6.12a7.345 7.345 0 01-7.37 0l-10.573-6.12A7.54 7.54 0 010 26.36V14.183a7.54 7.54 0 013.742-6.53L16.064.52a3.876 3.876 0 015.324 1.471z" clip-rule="evenodd"/><defs><linearGradient id="paint0_linear" x1="27.096" x2="8.281" y1="6.049" y2="35.254" gradientUnits="userSpaceOnUse"><stop stop-color="#FFB45B"/><stop offset="1" stop-color="#FF8A00"/></linearGradient></defs></svg>
